X:1
T:Working for the Crown
T:Working for the Crown
T:H. A. R. Horton
T:Mrs. H. A. Mabry, 1889
T:Public Domain Courtesy of the Cyber Hymnal™
T:Public Domain Courtesy of the Cyber Hymnal™
C:H. A. R. Horton
Z:Public Domain
Z:Courtesy of the Cyber Hymnal™
%%score ( 1 2 ) ( 3 4 )
L:1/8
Q:1/4=100
M:4/4
K:A
V:1 treble 
V:2 treble 
V:3 bass 
V:4 bass 
V:1
 [CE]2 | [CA]2 [CA]>[CA] [Ec]2 [CA][CA] | [DF]2 [FA]>[DA] !fermata![CE]3 [Ec] | %3
w: 1.~Shall|I be con- tent with one|star in my crown, When|
w: 2.~When,|Lord, must I work? Shall I|go in the heat, To|
w: 3.~Yes,|all kinds of work will I|find in this field, My|
w: 4.~And|how shall I get these rare|gems for my crown? Must|
 [Ae]2 [Ae][Ae] [Ec]2 [CA]>[CA] | [DB]6 [CE]2 | [CA]2 [CA]>[CA] [Ec]2 [CA][CA] | %6
w: Hea- ven’s bright por- tals I|see? The|an- swer comes back— strive a|
w: white and to wide har- vest|fields? Where|work is so great and the|
w: task then quite plain I can|see; And|now, hav- ing found it, I’ll|
w: I wait till Hea- ven I|gain? Yes,|yes, but toil here for the|
 [DF]2 [FA]>[DA] !fermata![CE]2 ([CA]>[Ec]) | [Ae]2 [Ec][CA] [DF]2 [CE]>[DG] | [CA]6 z2 || %9
w: clus- ter to win, And~the *|way will be bright- er for|thee.|
w: lab- orers so few, And~the *|prom- ise a boun- ti- ful|yield?|
w: la- bor and wait, For *|whol- ly thine, Lord, would I|be.|
w: Mas- ter’s re- nown, Day~by *|day for the Lamb that was|slain.|
"^Refrain" c4 [CA]2 [CF]>[CE] | A6 z2 | B4 [DB]2 [Ee]>[Ee] | e4 [Ec]2 z2 | A4 [DF]2 [DF]>[DF] | %14
w: |||||
w: Work- ing for the|crown,|Work- ing for the|crown, Work-|* ing for the|
w: |||||
w: |||||
 E6 z2 | [EA]3 [Ec] !fermata![Ae]2 !fermata![Ac]>[EB] | [EA]6 |] %17
w: |||
w: crown,|We shall wear by and|by.|
w: |||
w: |||
V:2
 x2 | x8 | x8 | x8 | x8 | x8 | x8 | x8 | x8 || (E>EE>E) x4 | (3(CCCC>C C2) x2 | (D>DD>D) x4 | %12
 (3AAAA>E x4 | (F>FF>F) x4 | (3(CCCC>C C2) x2 | x8 | x6 |] %17
V:3
 [A,,A,]2 | [A,,E,]2 [A,,E,]>[A,,E,] [A,,A,]2 [A,,A,][A,,A,] | %2
w: ||
 [D,A,]2 [D,A,]>[F,A,] !fermata!A,3 [A,,A,] | [A,C]2 [A,C][A,C] A,2 [A,,E,]>[A,,E,] | %4
w: * * * Work- *|* * * ing * *|
 [E,G,]6 [A,,A,]2 | [A,,E,]2 [A,,E,]>[A,,E,] [A,,A,]2 [A,,A,][A,,A,] | %6
w: ||
 [D,A,]2 [D,A,]>[F,A,] !fermata!A,2 ([A,,E,]>[A,,A,]) | %7
w: * * * for * *|
 [A,,A,C]2 [A,,A,][A,,A,] [D,A,]2 [E,A,]>E, | [A,,E,]6 z2 || %9
w: * * * * * the||
 [A,,A,]>[A,,A,] [A,,A,]>[A,,A,] [A,,E,]2 [A,,A,]>[A,,A,] | %10
w: crown, for the beau- ti- ful, gold-|
 (3[A,,E,][A,,E,][A,,E,] [A,,E,]>[A,,E,] [A,,E,]2 z2 | %11
w: en crown, Work- ing for the|
 [E,G,]>[E,G,] [E,G,]>[E,G,] [E,G,]2 [A,,A,C]>[A,,A,C] | %12
w: crown, for the beau- ti- ful, gold-|
 (3[A,C][A,C][A,C] [E,A,]>[C,A,] [A,,A,]2 z2 | [D,D]>[D,D] [D,D]>[D,D] [D,A,]2 [D,A,]>[D,A,] | %14
w: en crown, Work- ing for the|crown, for the beau- ti- ful, gold-|
 (3[A,,A,][A,,A,][A,,A,] [A,,A,]>[A,,A,] [A,,A,]2 z2 | %15
w: en crown, * * * *|
 [A,C]3 A, !fermata![A,C]2 !fermata![C,E]>[E,D] | [A,,C]6 |] %17
w: ||
V:4
 x2 | x8 | x4 A,3 x | x4 A,2 x2 | x8 | x8 | x4 A,2 x2 | x15/2 E,/ | x8 || x8 | x8 | x8 | x8 | x8 | %14
 x8 | x3 A, x4 | x6 |] %17

